PratyushDoodlesApp/static/images/ic_thrash.svg

<svg stroke-miterlimit="10" style="fill-rule:nonzero;clip-rule:evenodd;stroke-linecap:round;stroke-linejoin:round" viewBox="690.2 261.817 85.05 85.05" xml:space="preserve" xmlns="http://www.w3.org/2000/svg" xmlns:vectornator="http://vectornator.io"><clipPath id="a"><path d="M690.2 261.817h85.05v85.05H690.2z"/></clipPath><g vectornator:layerName="Layer"><g vectornator:layerName="Group 29" clip-path="url(#a)"><g vectornator:layerName="Group 28"><g vectornator:layerName="Group 27"><path d="M728.289 282.272c-.464.007-1.016.102-1.432.275-1.049.437-2.377 1.482-2.809 2.561-.516 1.289-.682 2.798-1.873 3.691-.303.227-.584.213-.936.33-.199.066-.445.192-.689.193-2.533.009-5.067-.009-7.601 0-.231.001-.489.216-.661.33-1.183.789-.867 3.193.799 3.195 13.458.018 26.916.019 40.374.028.126 0 .416-.057.523-.11 1.294-.648 1.506-2.949-.138-3.36-.068-.017-.181-.055-.247-.055-2.507-.018-5.013-.01-7.519-.028-.29-.002-.764-.04-1.019-.193-.505-.303-1-.502-1.377-1.046-.322-.465-.358-1.048-.606-1.543-.251-.503-.45-1.153-.661-1.679-.099-.249-.401-.512-.578-.717-.7-.807-1.539-1.387-2.561-1.679-.299-.086-.654-.164-.964-.166-3.342-.018-6.684-.077-10.025-.027Z" fill="#94481a" vectornator:layerName="Group 26"/><path d="M719.087 294.897c-.188 1.919 4.486 30.278 5.458 31.075.916.751 18.229.581 19.214-.491 1.06-1.153 4.449-28.676 4.227-30.584" fill="none" stroke="#94481a" stroke-width="4" vectornator:layerName="Curve 8"/><path d="M726.145 300.972c.059.643 2.371 14.793 2.427 14.793" fill="none" stroke="#f1f1f1" stroke-width="5" vectornator:layerName="Curve 9"/><path d="M741.339 300.902c-.128.634-1.96 14.848-1.906 14.863" fill="none" stroke="#f1f1f1" stroke-width="5" vectornator:layerName="Curve 10"/></g></g></g></g></svg>

<?xml version="1.0" encoding="UTF-8" standalone="no"?>
<!DOCTYPE svg PUBLIC "-//W3C//DTD SVG 1.1//EN" "http://www.w3.org/Graphics/SVG/1.1/DTD/svg11.dtd">
<!-- Created with Vectornator (http://vectornator.io/) -->
<svg height="100%" stroke-miterlimit="10" style="fill-rule:nonzero;clip-rule:evenodd;stroke-linecap:round;stroke-linejoin:round;" version="1.1" viewBox="690.2 261.817 85.05 85.05" width="100%" xml:space="preserve" xmlns="http://www.w3.org/2000/svg" xmlns:vectornator="http://vectornator.io" xmlns:xlink="http://www.w3.org/1999/xlink">
<defs/>
<clipPath id="ArtboardFrame">
<rect height="85.05" width="85.05" x="690.2" y="261.817"/>
</clipPath>
<g clip-path="url(#ArtboardFrame)" id="Layer" vectornator:layerName="Layer">
<g opacity="1" vectornator:layerName="Group 29">
<g opacity="1" vectornator:layerName="Group 28">
<g opacity="1" vectornator:layerName="Group 27">
<g opacity="1" vectornator:layerName="Group 26">
<path d="M728.289 282.272C727.825 282.279 727.273 282.374 726.857 282.547C725.808 282.984 724.48 284.029 724.048 285.108C723.532 286.397 723.366 287.906 722.175 288.799C721.872 289.026 721.591 289.012 721.239 289.129C721.04 289.195 720.794 289.321 720.55 289.322C718.017 289.331 715.483 289.313 712.949 289.322C712.718 289.323 712.46 289.538 712.288 289.652C711.105 290.441 711.421 292.845 713.087 292.847C726.545 292.865 740.003 292.866 753.461 292.875C753.587 292.875 753.877 292.818 753.984 292.765C755.278 292.117 755.49 289.816 753.846 289.405C753.778 289.388 753.665 289.35 753.599 289.35C751.092 289.332 748.586 289.34 746.08 289.322C745.79 289.32 745.316 289.282 745.061 289.129C744.556 288.826 744.061 288.627 743.684 288.083C743.362 287.618 743.326 287.035 743.078 286.54C742.827 286.037 742.628 285.387 742.417 284.861C742.318 284.612 742.016 284.349 741.839 284.144C741.139 283.337 740.3 282.757 739.278 282.465C738.979 282.379 738.624 282.301 738.314 282.299C734.972 282.281 731.63 282.222 728.289 282.272Z" fill="#94481a" fill-rule="nonzero" opacity="1" stroke="none"/>
</g>
<path d="M719.087 294.897C718.899 296.816 723.573 325.175 724.545 325.972C725.461 326.723 742.774 326.553 743.759 325.481C744.819 324.328 748.208 296.805 747.986 294.897" fill="none" opacity="1" stroke="#94481a" stroke-linecap="round" stroke-linejoin="round" stroke-width="4" vectornator:layerName="Curve 8"/>
<path d="M726.145 300.972C726.204 301.615 728.516 315.765 728.572 315.765" fill="none" opacity="1" stroke="#f1f1f1" stroke-linecap="round" stroke-linejoin="round" stroke-width="5" vectornator:layerName="Curve 9"/>
<path d="M741.339 300.902C741.211 301.536 739.379 315.75 739.433 315.765" fill="none" opacity="1" stroke="#f1f1f1" stroke-linecap="round" stroke-linejoin="round" stroke-width="5" vectornator:layerName="Curve 10"/>
</g>
</g>
</g>
</g>
</svg>
